client/filepreviewer/pdfjs/web/images/toolbarButton-pageDown.svg

<svg width="16" height="16" viewBox="0 0 16 16" fill="none" xmlns="http://www.w3.org/2000/svg">
<path d="M8.35176 10.9989L13.8178 5.53391C13.876 5.47594 13.9222 5.40702 13.9537 5.33113C13.9851 5.25524 14.0013 5.17387 14.0012 5.0917C14.0011 5.00954 13.9848 4.9282 13.9531 4.85238C13.9215 4.77656 13.8751 4.70775 13.8168 4.64991C13.6991 4.53309 13.5401 4.46753 13.3743 4.46753C13.2085 4.46753 13.0494 4.53309 12.9318 4.64991L7.99776 9.58491L3.06776 4.65091C2.9494 4.53853 2.79183 4.47682 2.62863 4.47894C2.46542 4.48106 2.3095 4.54683 2.19409 4.66224C2.07868 4.77765 2.01291 4.93357 2.01079 5.09677C2.00868 5.25997 2.07039 5.41754 2.18276 5.53591L7.64776 10.9999L8.35176 10.9989Z" fill="black"/>
</svg>

<svg xmlns="http://www.w3.org/2000/svg" width="16" height="16" fill="none"><path d="M8.352 10.999l5.466-5.465c.058-.058.104-.127.136-.203s.048-.157.048-.239a.62.62 0 0 0-.048-.239c-.032-.076-.078-.145-.136-.202a.63.63 0 0 0-.885 0L7.998 9.585l-4.93-4.934c-.118-.112-.276-.174-.439-.172s-.319.068-.435.183-.181.271-.183.435.06.321.172.439L7.648 11l.704-.001z" fill="#000"/></svg>
